X: 36553
T: Seven Of Eight
R: reel
M: 4/4
K: Aminor
M:7/8
|:A2c2cBA|B2E2E2e|d2B2Bcd|c2BA BGE|
A2c2cBA|B2E2E2E|F2c2cBA|D2B2BAG:|
|:ABcd egz|(d4d) B2|c2A2ABc|B2E2E2B|
ABcd egz|(d4d) B2|A2a2age|d2a2age:|

